report_00007_2020-12-11T15:55:29.892Z/bootup-time/progression/stddev.svg

<svg width="640" height="500" xmlns="http://www.w3.org/2000/svg" xmlns:xlink="http://www.w3.org/1999/xlink"><path fill="#fff" d="M0 0h640v500H0z"/><defs><path id="g" stroke-width=".222" stroke="currentColor" d="M-1 0h2M0-1v2"/><path id="h" stroke-width=".222" stroke="currentColor" d="M-1-1l2 2m0-2l-2 2"/><path id="d" stroke-width=".222" stroke="currentColor" d="M-1-1h2v2h-2z"/><path id="b" stroke-width=".222" stroke="currentColor" d="M0-1.33l-1.33 2h2.66z"/><path id="f" stroke-width=".222" stroke="currentColor" d="M0 1.33L1.265.411.782-1.067l-1.564-.009-.483 1.487z"/><use xlink:href="#b" id="c" stroke="currentColor" transform="rotate(180)"/><use xlink:href="#d" id="e" stroke="currentColor" transform="rotate(45)"/><circle id="a" stroke-width=".222" stroke="currentColor" cx="0" cy="0" r="1"/></defs><g fill="none" color="#000" stroke="currentColor"><path stroke="#000" d="M45.6 385.4h9m560.4 0h-9"/><text transform="translate(37.3 389.3)" stroke="none" fill="#000" font-family="Arial" font-size="12" text-anchor="end"><tspan>2</tspan></text></g><g fill="none" color="#000" stroke="currentColor"><path stroke="#000" d="M45.6 321.6h9m560.4 0h-9"/><text transform="translate(37.3 325.5)" stroke="none" fill="#000" font-family="Arial" font-size="12" text-anchor="end"><tspan>4</tspan></text></g><g fill="none" color="#000" stroke="currentColor"><path stroke="#000" d="M45.6 257.7h9m560.4 0h-9"/><text transform="translate(37.3 261.6)" stroke="none" fill="#000" font-family="Arial" font-size="12" text-anchor="end"><tspan>6</tspan></text></g><g fill="none" color="#000" stroke="currentColor"><path stroke="#000" d="M45.6 193.9h9m560.4 0h-9"/><text transform="translate(37.3 197.8)" stroke="none" fill="#000" font-family="Arial" font-size="12" text-anchor="end"><tspan>8</tspan></text></g><g fill="none" color="#000" stroke="currentColor"><path stroke="#000" d="M45.6 130.1h9m560.4 0h-9"/><text transform="translate(37.3 134)" stroke="none" fill="#000" font-family="Arial" font-size="12" text-anchor="end"><tspan>10</tspan></text></g><g fill="none" color="#000" stroke="currentColor"><path stroke="#000" d="M45.6 66.3h9m560.4 0h-9"/><text transform="translate(37.3 70.2)" stroke="none" fill="#000" font-family="Arial" font-size="12" text-anchor="end"><tspan>12</tspan></text></g><g fill="none" color="#000" stroke="currentColor"><path stroke="#000" d="M45.6 446v-9m0-418.9v9"/><text transform="translate(45.6 467.9)" stroke="none" fill="#000" font-family="Arial" font-size="12" text-anchor="middle"><tspan>0</tspan></text></g><g fill="none" color="#000" stroke="currentColor"><path stroke="#000" d="M133.2 446v-9m0-418.9v9"/><text transform="translate(133.2 467.9)" stroke="none" fill="#000" font-family="Arial" font-size="12" text-anchor="middle"><tspan>2</tspan></text></g><g fill="none" color="#000" stroke="currentColor"><path stroke="#000" d="M220.8 446v-9m0-418.9v9"/><text transform="translate(220.8 467.9)" stroke="none" fill="#000" font-family="Arial" font-size="12" text-anchor="middle"><tspan>4</tspan></text></g><g fill="none" color="#000" stroke="currentColor"><path stroke="#000" d="M308.4 446v-9m0-418.9v9"/><text transform="translate(308.4 467.9)" stroke="none" fill="#000" font-family="Arial" font-size="12" text-anchor="middle"><tspan>6</tspan></text></g><g fill="none" color="#000" stroke="currentColor"><path stroke="#000" d="M396 446v-9m0-418.9v9"/><text transform="translate(396 467.9)" stroke="none" fill="#000" font-family="Arial" font-size="12" text-anchor="middle"><tspan>8</tspan></text></g><g fill="none" color="#000" stroke="currentColor"><path stroke="#000" d="M483.6 446v-9m0-418.9v9"/><text transform="translate(483.6 467.9)" stroke="none" fill="#000" font-family="Arial" font-size="12" text-anchor="middle"><tspan>10</tspan></text></g><g fill="none" color="#000" stroke="currentColor"><path stroke="#000" d="M571.2 446v-9m0-418.9v9"/><text transform="translate(571.2 467.9)" stroke="none" fill="#000" font-family="Arial" font-size="12" text-anchor="middle"><tspan>12</tspan></text></g><path stroke="#000" d="M45.6 18.1V446H615V18.1H45.6z" fill="none" color="#000"/><text transform="translate(271.5 485.9)" stroke="none" fill="#000" font-family="Arial" font-size="12" text-anchor="end" color="#000"><tspan>p90stdev</tspan></text><g fill="none" color="#000" stroke="currentColor"><path stroke="#9400D3" d="M279.8 482H322M45.6 437.8L89.4 74.9l43.8-48.6L177 99.6l43.8 328.7 43.8 1.5 43.8-8.3 43.8 5.6 43.8-5.5 43.8 6.7 43.8-.4 43.8-8.1 43.8 5.8 43.8 9.5"/><use xlink:href="#g" transform="matrix(4.5 0 0 4.5 45.6 437.8)" color="#9400D3"/><use xlink:href="#g" transform="matrix(4.5 0 0 4.5 89.4 74.9)" color="#9400D3"/><use xlink:href="#g" transform="matrix(4.5 0 0 4.5 133.2 26.3)" color="#9400D3"/><use xlink:href="#g" transform="matrix(4.5 0 0 4.5 177 99.6)" color="#9400D3"/><use xlink:href="#g" transform="matrix(4.5 0 0 4.5 220.8 428.3)" color="#9400D3"/><use xlink:href="#g" transform="matrix(4.5 0 0 4.5 264.6 429.8)" color="#9400D3"/><use xlink:href="#g" transform="matrix(4.5 0 0 4.5 308.4 421.5)" color="#9400D3"/><use xlink:href="#g" transform="matrix(4.5 0 0 4.5 352.2 427.1)" color="#9400D3"/><use xlink:href="#g" transform="matrix(4.5 0 0 4.5 396 421.6)" color="#9400D3"/><use xlink:href="#g" transform="matrix(4.5 0 0 4.5 439.8 428.3)" color="#9400D3"/><use xlink:href="#g" transform="matrix(4.5 0 0 4.5 483.6 427.9)" color="#9400D3"/><use xlink:href="#g" transform="matrix(4.5 0 0 4.5 527.4 419.8)" color="#9400D3"/><use xlink:href="#g" transform="matrix(4.5 0 0 4.5 571.2 425.6)" color="#9400D3"/><use xlink:href="#g" transform="matrix(4.5 0 0 4.5 615 435.1)" color="#9400D3"/><use xlink:href="#g" transform="matrix(4.5 0 0 4.5 300.9 482)" color="#9400D3"/></g><text transform="translate(471.4 485.9)" stroke="none" fill="#000" font-family="Arial" font-size="12" text-anchor="end" color="#000"><tspan>p90outlandishness</tspan></text><g fill="none" color="#000" stroke="currentColor"><path stroke="#009E73" d="M479.7 482h42.2M45.6 417.1h43.8l43.8-.2H177l43.8.4h43.8l43.8-.1 43.8-.2 43.8.2 43.8-.4 43.8.7 43.8-.5 43.8-.3H615"/><use xlink:href="#h" transform="matrix(4.5 0 0 4.5 45.6 417.1)" color="#009E73"/><use xlink:href="#h" transform="matrix(4.5 0 0 4.5 89.4 417.1)" color="#009E73"/><use xlink:href="#h" transform="matrix(4.5 0 0 4.5 133.2 416.9)" color="#009E73"/><use xlink:href="#h" transform="matrix(4.5 0 0 4.5 177 416.9)" color="#009E73"/><use xlink:href="#h" transform="matrix(4.5 0 0 4.5 220.8 417.3)" color="#009E73"/><use xlink:href="#h" transform="matrix(4.5 0 0 4.5 264.6 417.3)" color="#009E73"/><use xlink:href="#h" transform="matrix(4.5 0 0 4.5 308.4 417.2)" color="#009E73"/><use xlink:href="#h" transform="matrix(4.5 0 0 4.5 352.2 417)" color="#009E73"/><use xlink:href="#h" transform="matrix(4.5 0 0 4.5 396 417.2)" color="#009E73"/><use xlink:href="#h" transform="matrix(4.5 0 0 4.5 439.8 416.8)" color="#009E73"/><use xlink:href="#h" transform="matrix(4.5 0 0 4.5 483.6 417.5)" color="#009E73"/><use xlink:href="#h" transform="matrix(4.5 0 0 4.5 527.4 417)" color="#009E73"/><use xlink:href="#h" transform="matrix(4.5 0 0 4.5 571.2 416.7)" color="#009E73"/><use xlink:href="#h" transform="matrix(4.5 0 0 4.5 615 416.7)" color="#009E73"/><use xlink:href="#h" transform="matrix(4.5 0 0 4.5 500.8 482)" color="#009E73"/></g><g fill="none" color="#000" stroke="currentColor"><path stroke="#000" d="M45.6 18.1V446H615V18.1H45.6z"/></g></svg>

<?xml version="1.0" encoding="utf-8"  standalone="no"?>
<svg 
 width="640" height="500"
 viewBox="0 0 640 500"
 xmlns="http://www.w3.org/2000/svg"
 xmlns:xlink="http://www.w3.org/1999/xlink"
>

<title>Gnuplot</title>
<desc>Produced by GNUPLOT 5.4 patchlevel 0 </desc>

<g id="gnuplot_canvas">

<rect x="0" y="0" width="640" height="500" fill="#ffffff"/>
<defs>

	<circle id='gpDot' r='0.5' stroke-width='0.5' stroke='currentColor'/>
	<path id='gpPt0' stroke-width='0.222' stroke='currentColor' d='M-1,0 h2 M0,-1 v2'/>
	<path id='gpPt1' stroke-width='0.222' stroke='currentColor' d='M-1,-1 L1,1 M1,-1 L-1,1'/>
	<path id='gpPt2' stroke-width='0.222' stroke='currentColor' d='M-1,0 L1,0 M0,-1 L0,1 M-1,-1 L1,1 M-1,1 L1,-1'/>
	<rect id='gpPt3' stroke-width='0.222' stroke='currentColor' x='-1' y='-1' width='2' height='2'/>
	<rect id='gpPt4' stroke-width='0.222' stroke='currentColor' fill='currentColor' x='-1' y='-1' width='2' height='2'/>
	<circle id='gpPt5' stroke-width='0.222' stroke='currentColor' cx='0' cy='0' r='1'/>
	<use xlink:href='#gpPt5' id='gpPt6' fill='currentColor' stroke='none'/>
	<path id='gpPt7' stroke-width='0.222' stroke='currentColor' d='M0,-1.33 L-1.33,0.67 L1.33,0.67 z'/>
	<use xlink:href='#gpPt7' id='gpPt8' fill='currentColor' stroke='none'/>
	<use xlink:href='#gpPt7' id='gpPt9' stroke='currentColor' transform='rotate(180)'/>
	<use xlink:href='#gpPt9' id='gpPt10' fill='currentColor' stroke='none'/>
	<use xlink:href='#gpPt3' id='gpPt11' stroke='currentColor' transform='rotate(45)'/>
	<use xlink:href='#gpPt11' id='gpPt12' fill='currentColor' stroke='none'/>
	<path id='gpPt13' stroke-width='0.222' stroke='currentColor' d='M0,1.330 L1.265,0.411 L0.782,-1.067 L-0.782,-1.076 L-1.265,0.411 z'/>
	<use xlink:href='#gpPt13' id='gpPt14' fill='currentColor' stroke='none'/>
	<filter id='textbox' filterUnits='objectBoundingBox' x='0' y='0' height='1' width='1'>
	  <feFlood flood-color='#FFFFFF' flood-opacity='1' result='bgnd'/>
	  <feComposite in='SourceGraphic' in2='bgnd' operator='atop'/>
	</filter>
	<filter id='greybox' filterUnits='objectBoundingBox' x='0' y='0' height='1' width='1'>
	  <feFlood flood-color='lightgrey' flood-opacity='1' result='grey'/>
	  <feComposite in='SourceGraphic' in2='grey' operator='atop'/>
	</filter>
</defs>
<g fill="none" color="#FFFFFF" stroke="black" stroke-width="1.00" stroke-linecap="butt" stroke-linejoin="miter">
</g>
<g fill="none" color="black" stroke="currentColor" stroke-width="1.00" stroke-linecap="butt" stroke-linejoin="miter">
	<path stroke='black'  d='M45.6,385.4 L54.6,385.4 M615.0,385.4 L606.0,385.4  '/>	<g transform="translate(37.3,389.3)" stroke="none" fill="black" font-family="Arial" font-size="12.00"  text-anchor="end">
		<text><tspan font-family="Arial" > 2</tspan></text>
	</g>
</g>
<g fill="none" color="black" stroke="currentColor" stroke-width="1.00" stroke-linecap="butt" stroke-linejoin="miter">
	<path stroke='black'  d='M45.6,321.6 L54.6,321.6 M615.0,321.6 L606.0,321.6  '/>	<g transform="translate(37.3,325.5)" stroke="none" fill="black" font-family="Arial" font-size="12.00"  text-anchor="end">
		<text><tspan font-family="Arial" > 4</tspan></text>
	</g>
</g>
<g fill="none" color="black" stroke="currentColor" stroke-width="1.00" stroke-linecap="butt" stroke-linejoin="miter">
	<path stroke='black'  d='M45.6,257.7 L54.6,257.7 M615.0,257.7 L606.0,257.7  '/>	<g transform="translate(37.3,261.6)" stroke="none" fill="black" font-family="Arial" font-size="12.00"  text-anchor="end">
		<text><tspan font-family="Arial" > 6</tspan></text>
	</g>
</g>
<g fill="none" color="black" stroke="currentColor" stroke-width="1.00" stroke-linecap="butt" stroke-linejoin="miter">
	<path stroke='black'  d='M45.6,193.9 L54.6,193.9 M615.0,193.9 L606.0,193.9  '/>	<g transform="translate(37.3,197.8)" stroke="none" fill="black" font-family="Arial" font-size="12.00"  text-anchor="end">
		<text><tspan font-family="Arial" > 8</tspan></text>
	</g>
</g>
<g fill="none" color="black" stroke="currentColor" stroke-width="1.00" stroke-linecap="butt" stroke-linejoin="miter">
	<path stroke='black'  d='M45.6,130.1 L54.6,130.1 M615.0,130.1 L606.0,130.1  '/>	<g transform="translate(37.3,134.0)" stroke="none" fill="black" font-family="Arial" font-size="12.00"  text-anchor="end">
		<text><tspan font-family="Arial" > 10</tspan></text>
	</g>
</g>
<g fill="none" color="black" stroke="currentColor" stroke-width="1.00" stroke-linecap="butt" stroke-linejoin="miter">
	<path stroke='black'  d='M45.6,66.3 L54.6,66.3 M615.0,66.3 L606.0,66.3  '/>	<g transform="translate(37.3,70.2)" stroke="none" fill="black" font-family="Arial" font-size="12.00"  text-anchor="end">
		<text><tspan font-family="Arial" > 12</tspan></text>
	</g>
</g>
<g fill="none" color="black" stroke="currentColor" stroke-width="1.00" stroke-linecap="butt" stroke-linejoin="miter">
	<path stroke='black'  d='M45.6,446.0 L45.6,437.0 M45.6,18.1 L45.6,27.1  '/>	<g transform="translate(45.6,467.9)" stroke="none" fill="black" font-family="Arial" font-size="12.00"  text-anchor="middle">
		<text><tspan font-family="Arial" > 0</tspan></text>
	</g>
</g>
<g fill="none" color="black" stroke="currentColor" stroke-width="1.00" stroke-linecap="butt" stroke-linejoin="miter">
	<path stroke='black'  d='M133.2,446.0 L133.2,437.0 M133.2,18.1 L133.2,27.1  '/>	<g transform="translate(133.2,467.9)" stroke="none" fill="black" font-family="Arial" font-size="12.00"  text-anchor="middle">
		<text><tspan font-family="Arial" > 2</tspan></text>
	</g>
</g>
<g fill="none" color="black" stroke="currentColor" stroke-width="1.00" stroke-linecap="butt" stroke-linejoin="miter">
	<path stroke='black'  d='M220.8,446.0 L220.8,437.0 M220.8,18.1 L220.8,27.1  '/>	<g transform="translate(220.8,467.9)" stroke="none" fill="black" font-family="Arial" font-size="12.00"  text-anchor="middle">
		<text><tspan font-family="Arial" > 4</tspan></text>
	</g>
</g>
<g fill="none" color="black" stroke="currentColor" stroke-width="1.00" stroke-linecap="butt" stroke-linejoin="miter">
	<path stroke='black'  d='M308.4,446.0 L308.4,437.0 M308.4,18.1 L308.4,27.1  '/>	<g transform="translate(308.4,467.9)" stroke="none" fill="black" font-family="Arial" font-size="12.00"  text-anchor="middle">
		<text><tspan font-family="Arial" > 6</tspan></text>
	</g>
</g>
<g fill="none" color="black" stroke="currentColor" stroke-width="1.00" stroke-linecap="butt" stroke-linejoin="miter">
	<path stroke='black'  d='M396.0,446.0 L396.0,437.0 M396.0,18.1 L396.0,27.1  '/>	<g transform="translate(396.0,467.9)" stroke="none" fill="black" font-family="Arial" font-size="12.00"  text-anchor="middle">
		<text><tspan font-family="Arial" > 8</tspan></text>
	</g>
</g>
<g fill="none" color="black" stroke="currentColor" stroke-width="1.00" stroke-linecap="butt" stroke-linejoin="miter">
	<path stroke='black'  d='M483.6,446.0 L483.6,437.0 M483.6,18.1 L483.6,27.1  '/>	<g transform="translate(483.6,467.9)" stroke="none" fill="black" font-family="Arial" font-size="12.00"  text-anchor="middle">
		<text><tspan font-family="Arial" > 10</tspan></text>
	</g>
</g>
<g fill="none" color="black" stroke="currentColor" stroke-width="1.00" stroke-linecap="butt" stroke-linejoin="miter">
	<path stroke='black'  d='M571.2,446.0 L571.2,437.0 M571.2,18.1 L571.2,27.1  '/>	<g transform="translate(571.2,467.9)" stroke="none" fill="black" font-family="Arial" font-size="12.00"  text-anchor="middle">
		<text><tspan font-family="Arial" > 12</tspan></text>
	</g>
</g>
<g fill="none" color="black" stroke="currentColor" stroke-width="1.00" stroke-linecap="butt" stroke-linejoin="miter">
</g>
<g fill="none" color="black" stroke="currentColor" stroke-width="1.00" stroke-linecap="butt" stroke-linejoin="miter">
	<path stroke='black'  d='M45.6,18.1 L45.6,446.0 L615.0,446.0 L615.0,18.1 L45.6,18.1 Z  '/></g>
<g fill="none" color="black" stroke="currentColor" stroke-width="1.00" stroke-linecap="butt" stroke-linejoin="miter">
</g>
	<g id="gnuplot_plot_1" ><title>p90stdev</title>
<g fill="none" color="black" stroke="currentColor" stroke-width="1.00" stroke-linecap="butt" stroke-linejoin="miter">
	<g transform="translate(271.5,485.9)" stroke="none" fill="black" font-family="Arial" font-size="12.00"  text-anchor="end">
		<text><tspan font-family="Arial" >p90stdev</tspan></text>
	</g>
</g>
<g fill="none" color="black" stroke="currentColor" stroke-width="1.00" stroke-linecap="butt" stroke-linejoin="miter">
	<path stroke='rgb(148,   0, 211)'  d='M279.8,482.0 L322.0,482.0 M45.6,437.8 L89.4,74.9 L133.2,26.3 L177.0,99.6 L220.8,428.3 L264.6,429.8
		L308.4,421.5 L352.2,427.1 L396.0,421.6 L439.8,428.3 L483.6,427.9 L527.4,419.8 L571.2,425.6 L615.0,435.1
		 '/>	<use xlink:href='#gpPt0' transform='translate(45.6,437.8) scale(4.50)' color='rgb(148,   0, 211)'/>
	<use xlink:href='#gpPt0' transform='translate(89.4,74.9) scale(4.50)' color='rgb(148,   0, 211)'/>
	<use xlink:href='#gpPt0' transform='translate(133.2,26.3) scale(4.50)' color='rgb(148,   0, 211)'/>
	<use xlink:href='#gpPt0' transform='translate(177.0,99.6) scale(4.50)' color='rgb(148,   0, 211)'/>
	<use xlink:href='#gpPt0' transform='translate(220.8,428.3) scale(4.50)' color='rgb(148,   0, 211)'/>
	<use xlink:href='#gpPt0' transform='translate(264.6,429.8) scale(4.50)' color='rgb(148,   0, 211)'/>
	<use xlink:href='#gpPt0' transform='translate(308.4,421.5) scale(4.50)' color='rgb(148,   0, 211)'/>
	<use xlink:href='#gpPt0' transform='translate(352.2,427.1) scale(4.50)' color='rgb(148,   0, 211)'/>
	<use xlink:href='#gpPt0' transform='translate(396.0,421.6) scale(4.50)' color='rgb(148,   0, 211)'/>
	<use xlink:href='#gpPt0' transform='translate(439.8,428.3) scale(4.50)' color='rgb(148,   0, 211)'/>
	<use xlink:href='#gpPt0' transform='translate(483.6,427.9) scale(4.50)' color='rgb(148,   0, 211)'/>
	<use xlink:href='#gpPt0' transform='translate(527.4,419.8) scale(4.50)' color='rgb(148,   0, 211)'/>
	<use xlink:href='#gpPt0' transform='translate(571.2,425.6) scale(4.50)' color='rgb(148,   0, 211)'/>
	<use xlink:href='#gpPt0' transform='translate(615.0,435.1) scale(4.50)' color='rgb(148,   0, 211)'/>
	<use xlink:href='#gpPt0' transform='translate(300.9,482.0) scale(4.50)' color='rgb(148,   0, 211)'/>
</g>
	</g>
	<g id="gnuplot_plot_2" ><title>p90outlandishness</title>
<g fill="none" color="black" stroke="currentColor" stroke-width="1.00" stroke-linecap="butt" stroke-linejoin="miter">
	<g transform="translate(471.4,485.9)" stroke="none" fill="black" font-family="Arial" font-size="12.00"  text-anchor="end">
		<text><tspan font-family="Arial" >p90outlandishness</tspan></text>
	</g>
</g>
<g fill="none" color="black" stroke="currentColor" stroke-width="1.00" stroke-linecap="butt" stroke-linejoin="miter">
	<path stroke='rgb(  0, 158, 115)'  d='M479.7,482.0 L521.9,482.0 M45.6,417.1 L89.4,417.1 L133.2,416.9 L177.0,416.9 L220.8,417.3 L264.6,417.3
		L308.4,417.2 L352.2,417.0 L396.0,417.2 L439.8,416.8 L483.6,417.5 L527.4,417.0 L571.2,416.7 L615.0,416.7
		 '/>	<use xlink:href='#gpPt1' transform='translate(45.6,417.1) scale(4.50)' color='rgb(  0, 158, 115)'/>
	<use xlink:href='#gpPt1' transform='translate(89.4,417.1) scale(4.50)' color='rgb(  0, 158, 115)'/>
	<use xlink:href='#gpPt1' transform='translate(133.2,416.9) scale(4.50)' color='rgb(  0, 158, 115)'/>
	<use xlink:href='#gpPt1' transform='translate(177.0,416.9) scale(4.50)' color='rgb(  0, 158, 115)'/>
	<use xlink:href='#gpPt1' transform='translate(220.8,417.3) scale(4.50)' color='rgb(  0, 158, 115)'/>
	<use xlink:href='#gpPt1' transform='translate(264.6,417.3) scale(4.50)' color='rgb(  0, 158, 115)'/>
	<use xlink:href='#gpPt1' transform='translate(308.4,417.2) scale(4.50)' color='rgb(  0, 158, 115)'/>
	<use xlink:href='#gpPt1' transform='translate(352.2,417.0) scale(4.50)' color='rgb(  0, 158, 115)'/>
	<use xlink:href='#gpPt1' transform='translate(396.0,417.2) scale(4.50)' color='rgb(  0, 158, 115)'/>
	<use xlink:href='#gpPt1' transform='translate(439.8,416.8) scale(4.50)' color='rgb(  0, 158, 115)'/>
	<use xlink:href='#gpPt1' transform='translate(483.6,417.5) scale(4.50)' color='rgb(  0, 158, 115)'/>
	<use xlink:href='#gpPt1' transform='translate(527.4,417.0) scale(4.50)' color='rgb(  0, 158, 115)'/>
	<use xlink:href='#gpPt1' transform='translate(571.2,416.7) scale(4.50)' color='rgb(  0, 158, 115)'/>
	<use xlink:href='#gpPt1' transform='translate(615.0,416.7) scale(4.50)' color='rgb(  0, 158, 115)'/>
	<use xlink:href='#gpPt1' transform='translate(500.8,482.0) scale(4.50)' color='rgb(  0, 158, 115)'/>
</g>
	</g>
<g fill="none" color="#FFFFFF" stroke="rgb(  0, 158, 115)" stroke-width="2.00" stroke-linecap="butt" stroke-linejoin="miter">
</g>
<g fill="none" color="black" stroke="currentColor" stroke-width="2.00" stroke-linecap="butt" stroke-linejoin="miter">
</g>
<g fill="none" color="black" stroke="black" stroke-width="1.00" stroke-linecap="butt" stroke-linejoin="miter">
</g>
<g fill="none" color="black" stroke="currentColor" stroke-width="1.00" stroke-linecap="butt" stroke-linejoin="miter">
	<path stroke='black'  d='M45.6,18.1 L45.6,446.0 L615.0,446.0 L615.0,18.1 L45.6,18.1 Z  '/></g>
<g fill="none" color="black" stroke="currentColor" stroke-width="1.00" stroke-linecap="butt" stroke-linejoin="miter">
</g>
</g>
</svg>
